dist/img/message.svg

<svg width="57" height="57" viewBox="0 0 57 57" fill="none" xmlns="http://www.w3.org/2000/svg">
<g clip-path="url(#clip0_19_593)">
<rect x="3.06378" y="3.06372" width="49.8725" height="49.8725" rx="8.9058" fill="#FE9563"/>
<path d="M28 12.4148C18.1619 12.4148 10.1884 18.8924 10.1884 26.8867C10.1884 30.3377 11.6773 33.4965 14.1542 35.9804C13.2845 39.487 10.3762 42.611 10.3415 42.6458C10.1884 42.8058 10.1466 43.0424 10.2371 43.2511C10.3275 43.4599 10.5224 43.5851 10.745 43.5851C15.3579 43.5851 18.8159 41.3726 20.5275 40.0089C22.8026 40.8646 25.3282 41.3586 28 41.3586C37.8381 41.3586 45.8116 34.8811 45.8116 26.8867C45.8116 18.8924 37.8381 12.4148 28 12.4148ZM30.2264 30.783C30.2264 31.0891 29.976 31.3396 29.6698 31.3396H19.6508C19.3447 31.3396 19.0942 31.0891 19.0942 30.783V29.6698C19.0942 29.3636 19.3447 29.1132 19.6508 29.1132H29.6698C29.976 29.1132 30.2264 29.3636 30.2264 29.6698V30.783ZM36.9058 24.1037C36.9058 24.4098 36.6553 24.6603 36.3492 24.6603H19.6508C19.3447 24.6603 19.0942 24.4098 19.0942 24.1037V22.9904C19.0942 22.6843 19.3447 22.4338 19.6508 22.4338H36.3492C36.6553 22.4338 36.9058 22.6843 36.9058 22.9904V24.1037Z" fill="#FAFBFC"/>
</g>
<defs>
<clipPath id="clip0_19_593">
<rect width="56.9971" height="56.9971" fill="white"/>
</clipPath>
</defs>
</svg>

<svg width="57" height="57" fill="none" xmlns="http://www.w3.org/2000/svg"><g clip-path="url(#clip0_19_593)"><rect x="3.064" y="3.064" width="49.873" height="49.873" rx="8.906" fill="#FE9563"/><path d="M28 12.415c-9.838 0-17.812 6.477-17.812 14.472 0 3.45 1.49 6.61 3.966 9.093-.87 3.507-3.778 6.631-3.813 6.666a.553.553 0 00-.104.605c.09.209.285.334.508.334 4.613 0 8.07-2.212 9.783-3.576A21.22 21.22 0 0028 41.359c9.838 0 17.812-6.478 17.812-14.472 0-7.995-7.974-14.472-17.812-14.472zm2.226 18.368c0 .306-.25.557-.556.557H19.65a.558.558 0 01-.556-.557V29.67c0-.306.25-.557.557-.557H29.67c.306 0 .556.25.556.557v1.113zm6.68-6.68c0 .307-.25.557-.557.557H19.651a.558.558 0 01-.557-.556V22.99c0-.306.25-.556.557-.556h16.698c.306 0 .557.25.557.556v1.114z" fill="#FAFBFC"/></g><defs><clipPath id="clip0_19_593"><path fill="#fff" d="M0 0h56.997v56.997H0z"/></clipPath></defs></svg>
